X:1
T:Title
%%score { ( 1 3 ) | ( 2 4 5 ) }
L:1/8
M:4/4
K:D
V:1 treble nm="Grand Piano"
V:3 treble 
V:2 bass 
V:4 bass 
V:5 bass 
V:1
 z4 z2[Q:1/4=100] [DF]>[EG] | [FA]>[FA] [FA]>[GB] [FA]>F E>D | d>d d>B [DFA]2 A>A | A6 z2 | A6 z2 | %5
 [FA]>[FA] [FA]>[GB] [FA]>F E>D | d>d d>B [DFA]2 A>A | z2 [CE]>[DF] [EG]>[DFA] (3[EG]FE | %8
[M:3/4] D6 |[M:1/4] (3ABc |[M:4/4] d6 z2 | A6 z2 | z2 [CE]>[DF] [EG]>[DFA] (3[EG]FE |[M:3/4] F6 | %14
[M:1/4] (3ABc |[M:4/4] d6 z2 | A6 z2 | z2 [CE]>[DF] [EG]>[DFA] (3[EG]FE[K:bass] |[M:3/4] D6 |] %19
V:2
 z4 z2 [D,A,]>[D,A,] | [D,D]>[D,D] [D,D]>[D,D] [D,D]>[D,A,D] [E,A,C]>[F,A,] | %2
 [G,B,D]>[G,B,G] [G,B,G]>[A,DG] D,2 F>F | G2[K:bass] A,,>A,, A,,>[K:treble]F G>F | F6[K:bass] z2 | %5
 [D,D]>[D,D] [D,D]>[D,D] [D,D]>[D,A,D] [E,A,C]>[E,A,] | [G,B,D]>[G,B,G] [G,B,G]>[G,DG] D,2 F>F | %7
 G2[K:bass] A,,>A,, A,,>A,, (3z DC |[M:3/4] [D,F,]6 |[M:1/4] (3z[K:treble] ^G=G | %10
[M:4/4] F6[K:bass][K:treble] z2 | F6[K:bass][K:treble] z2 | G2[K:bass] A,,>A,, A,,>A,, (3z DC | %13
[M:3/4] [D,A,D]>[D,A,] [D,A,]>[D,A,] [D,A,]2 |[M:1/4] (3z[K:treble] ^G=G | %15
[M:4/4] F6[K:bass][K:treble] z2 | F6[K:bass][K:treble] z2 | G2[K:bass] A,,>A,, A,,>A,, (3z DC | %18
[M:3/4] F,>F, G,>G, F,2 |] %19
V:3
 x8 | x8 | x8 | z2 [CE]>[DF] [EG]>A B>A | z z/ D/ D>D D2 F>[EG] | x8 | x8 | A6 z z/ G,/ | %8
[M:3/4] x6 |[M:1/4] x2 |[M:4/4] z2 A,>A, A,>e d>B | z z/ D/ D>D D2 A>A | A6 z z/ A,/ | %13
[M:3/4] z z/ D/ D>D D2 |[M:1/4] x2 |[M:4/4] z2 A,>A, A,>e d>B | z z/ D/ D>D D2 A>A | %17
 A6 z z/[K:bass] A,/ |[M:3/4] z z/ A,/ B,>B, A,2 |] %19
V:4
 x8 | x8 | x8 | x2[K:bass] x7/2[K:treble] x5/2 | z z/[K:bass] D,/ D,>D, D,2 [D,A,D]>[D,A,] | x8 | %6
 x8 | z4[K:bass] z2 A,>A,, |[M:3/4] x6 |[M:1/4] x2/3[K:treble] x4/3 | %10
[M:4/4] z2[K:bass] D,>D, D,>[K:treble]G F>G | z z/[K:bass] D,/ D,>D, D,2[K:treble] F>F | %12
 z4[K:bass] z2 A,>A,, |[M:3/4] x6 |[M:1/4] x2/3[K:treble] x4/3 | %15
[M:4/4] z2[K:bass] D,>D, D,>[K:treble]G F>G | z z/[K:bass] D,/ D,>D, D,2[K:treble] F>F | %17
 z4[K:bass] z2 A,>A,, |[M:3/4] D,6 |] %19
V:5
 x8 | x8 | x8 | x2[K:bass] x7/2[K:treble] x5/2 | x3/2[K:bass] x13/2 | x8 | x8 | %7
 z4[K:bass] z2 A,,2 |[M:3/4] x6 |[M:1/4] x2/3[K:treble] x4/3 | %10
[M:4/4] x2[K:bass] x7/2[K:treble] x5/2 | x3/2[K:bass] x9/2[K:treble] x2 | z4[K:bass] z2 A,,2 | %13
[M:3/4] x6 |[M:1/4] x2/3[K:treble] x4/3 |[M:4/4] x2[K:bass] x7/2[K:treble] x5/2 | %16
 x3/2[K:bass] x9/2[K:treble] x2 | z4[K:bass] z2 A,,2 |[M:3/4] x6 |] %19

